X:456
T:What Did Delaware
K:G
M:4/4
L:1/8
B2 d2 d2 e2 | B4 G4 | A2 G2 G2 E2 | G6 G2 |
B2 d2 d2 e2 | B4 G4 | A2 G2 F2 G2 | A6 A2 ||
A2 B2 c2 d2 | B4 G4 | E2 F2 G2 A2 | F4 D4 |
E2 E2 F2 F2 | G4 c4 | B2 G2 A2 F2 | G4 G4 ||
